www/assets/icons/file_upload.svg

<svg width="24" height="24" viewBox="0 0 24 24" xmlns="http://www.w3.org/2000/svg" fill='currentColor'><path d="M9 16.5H15V10.5H19L12 3.5L5 10.5H9V16.5ZM5 18.5H19V20.5H5V18.5Z"/></svg>

<svg xmlns="http://www.w3.org/2000/svg" width="24" height="24" viewBox="0 0 24 24" fill='currentColor'><path d="M9 16.5h6v-6h4l-7-7-7 7h4zm-4 2h14v2H5z"/></svg>
